assets/img/braze_icons/stars-03.svg

<svg fill="none" height="24" viewBox="0 0 24 24" width="24" xmlns="http://www.w3.org/2000/svg"><g fill="#801ed7"><path d="m7.39443 1.55279c-.1694-.33879-.51566-.55279-.89443-.55279s-.72504.214-.89443.55279l-.78446 1.56891c-.28248.56497-.36856.72755-.47315.86324-.10491.1361-.22692.25811-.36302.36302-.13569.10459-.29827.19067-.86324.47315l-1.56891.78446c-.33879.16939-.55279.51566-.55279.89443s.214.72504.55279.89443l1.56891.78446c.56497.28248.72755.36856.86324.47315.1361.10491.25811.22692.36302.36302.10459.13569.19067.29827.47315.86324l.78446 1.5689c.1694.3388.51566.5528.89443.5528s.72504-.214.89443-.5528l.78446-1.5689c.28248-.56497.36856-.72755.47315-.86324.10491-.1361.22692-.25811.36302-.36302.13569-.10459.29827-.19067.86324-.47315l1.5689-.78446c.3388-.16939.5528-.51566.5528-.89443s-.214-.72504-.5528-.89443l-1.5689-.78446c-.56497-.28248-.72755-.36856-.86324-.47315-.1361-.10491-.25811-.22692-.36302-.36302-.10459-.13569-.19067-.29827-.47315-.86324z"/><path d="m19.5 3c0-.55228-.4477-1-1-1s-1 .44772-1 1v1.5h-1.5c-.5523 0-1 .44772-1 1s.4477 1 1 1h1.5v1.5c0 .55228.4477 1 1 1s1-.44772 1-1v-1.5h1.5c.5523 0 1-.44772 1-1s-.4477-1-1-1h-1.5z"/><path d="m6.5 16c0-.5523-.44772-1-1-1s-1 .4477-1 1v1.5h-1.5c-.55228 0-1 .4477-1 1s.44772 1 1 1h1.5v1.5c0 .5523.44772 1 1 1s1-.4477 1-1v-1.5h1.5c.55228 0 1-.4477 1-1s-.44772-1-1-1h-1.5z"/><path d="m17.8944 11.5528c-.1694-.3388-.5156-.5528-.8944-.5528s-.725.214-.8944.5528l-.9512 1.9022c-.2824.565-.3685.7276-.4731.8633-.1049.1361-.2269.2581-.363.363-.1357.1046-.2983.1907-.8633.4731l-1.9022.9512c-.3388.1694-.5528.5156-.5528.8944s.214.725.5528.8944l1.9022.9512c.565.2824.7276.3685.8633.4731.1361.1049.2581.2269.363.363.1046.1357.1907.2983.4731.8633l.9512 1.9022c.1694.3388.5156.5528.8944.5528s.725-.214.8944-.5528l.9512-1.9022c.2824-.565.3685-.7276.4731-.8633.1049-.1361.2269-.2581.363-.363.1357-.1046.2983-.1907.8633-.4731l1.9022-.9512c.3388-.1694.5528-.5156.5528-.8944s-.214-.725-.5528-.8944l-1.9022-.9512c-.565-.2824-.7276-.3685-.8633-.4731-.1361-.1049-.2581-.2269-.363-.363-.1046-.1357-.1907-.2983-.4731-.8633z"/></g></svg>

<svg width="24" height="24" viewBox="0 0 24 24" fill="none" xmlns="http://www.w3.org/2000/svg">
<path d="M7.39443 1.55279C7.22503 1.214 6.87877 1 6.5 1C6.12123 1 5.77496 1.214 5.60557 1.55279L4.82111 3.1217C4.53863 3.68667 4.45255 3.84925 4.34796 3.98494C4.24305 4.12104 4.12104 4.24305 3.98494 4.34796C3.84925 4.45255 3.68667 4.53863 3.1217 4.82111L1.55279 5.60557C1.214 5.77496 1 6.12123 1 6.5C1 6.87877 1.214 7.22504 1.55279 7.39443L3.1217 8.17889C3.68667 8.46137 3.84925 8.54745 3.98494 8.65204C4.12104 8.75695 4.24305 8.87896 4.34796 9.01506C4.45255 9.15075 4.53863 9.31333 4.82111 9.8783L5.60557 11.4472C5.77497 11.786 6.12123 12 6.5 12C6.87877 12 7.22504 11.786 7.39443 11.4472L8.17889 9.8783C8.46137 9.31333 8.54745 9.15075 8.65204 9.01506C8.75695 8.87896 8.87896 8.75695 9.01506 8.65204C9.15075 8.54745 9.31333 8.46137 9.8783 8.17889L11.4472 7.39443C11.786 7.22504 12 6.87877 12 6.5C12 6.12123 11.786 5.77496 11.4472 5.60557L9.8783 4.82111C9.31333 4.53863 9.15075 4.45255 9.01506 4.34796C8.87896 4.24305 8.75695 4.12104 8.65204 3.98494C8.54745 3.84925 8.46137 3.68667 8.17889 3.1217L7.39443 1.55279Z" fill="#801ED7"/>
<path d="M19.5 3C19.5 2.44772 19.0523 2 18.5 2C17.9477 2 17.5 2.44772 17.5 3V4.5H16C15.4477 4.5 15 4.94772 15 5.5C15 6.05228 15.4477 6.5 16 6.5H17.5V8C17.5 8.55228 17.9477 9 18.5 9C19.0523 9 19.5 8.55228 19.5 8V6.5H21C21.5523 6.5 22 6.05228 22 5.5C22 4.94772 21.5523 4.5 21 4.5H19.5V3Z" fill="#801ED7"/>
<path d="M6.5 16C6.5 15.4477 6.05228 15 5.5 15C4.94772 15 4.5 15.4477 4.5 16V17.5H3C2.44772 17.5 2 17.9477 2 18.5C2 19.0523 2.44772 19.5 3 19.5H4.5V21C4.5 21.5523 4.94772 22 5.5 22C6.05228 22 6.5 21.5523 6.5 21V19.5H8C8.55228 19.5 9 19.0523 9 18.5C9 17.9477 8.55228 17.5 8 17.5H6.5V16Z" fill="#801ED7"/>
<path d="M17.8944 11.5528C17.725 11.214 17.3788 11 17 11C16.6212 11 16.275 11.214 16.1056 11.5528L15.1544 13.455C14.872 14.02 14.7859 14.1826 14.6813 14.3183C14.5764 14.4544 14.4544 14.5764 14.3183 14.6813C14.1826 14.7859 14.02 14.872 13.455 15.1544L11.5528 16.1056C11.214 16.275 11 16.6212 11 17C11 17.3788 11.214 17.725 11.5528 17.8944L13.455 18.8456C14.02 19.128 14.1826 19.2141 14.3183 19.3187C14.4544 19.4236 14.5764 19.5456 14.6813 19.6817C14.7859 19.8174 14.872 19.98 15.1544 20.545L16.1056 22.4472C16.275 22.786 16.6212 23 17 23C17.3788 23 17.725 22.786 17.8944 22.4472L18.8456 20.545C19.128 19.98 19.2141 19.8174 19.3187 19.6817C19.4236 19.5456 19.5456 19.4236 19.6817 19.3187C19.8174 19.2141 19.98 19.128 20.545 18.8456L22.4472 17.8944C22.786 17.725 23 17.3788 23 17C23 16.6212 22.786 16.275 22.4472 16.1056L20.545 15.1544C19.98 14.872 19.8174 14.7859 19.6817 14.6813C19.5456 14.5764 19.4236 14.4544 19.3187 14.3183C19.2141 14.1826 19.128 14.02 18.8456 13.455L17.8944 11.5528Z" fill="#801ED7"/>
</svg>
